X: 1
T:Flowers of Red Hill, The
T:Clogher Reel
M:C|
L:1/8
R:Reel
K:G
eA ~A2 gAfA|eA ~A2 eAdA|eA ~A2 eAfA|gedB GABd:|
ea ~a2 baag|eaag egdg|ea ~a2 bgag|edef gedg|
ea ~a2 baag|eaaf g3 a|bg ~g2 aged|eaag edBd|]
